X:5
T:Loftus Jones
R:carolan
C:Turlough O'Carolan (1670-1738)
Z:id:hn-carolan-5
M:2/4
L:1/16
K:G
g4 f2e2 | d3c BcdB | cBAB G3A | BcBA G2A2 |
BcdB cdec | d2cB cBAG | FGFE D3F | GAGF E2c2 |
dcdB cBcA | G2D2 E2F2 | G2E2 F2G2 | A2F2 G2A2 |
B2G2 A2B2 | c4 d4 | cBAG FGAF | G2DC B,2D2 | G3A G4 :|
|: A2F2 G2E2 | F2D2 E2F2 | G2B2 F2B2 | E4F4 |
BBB2 AAA2 | GABc B3A | GABc dcBA | G2F2 E4 |
B,EGE B,EGE | DFDF DFDF | EGEG EGEG | FAFA FAFA |
GBGB GBGB | GBGB GBGB | efg2 f2gf | e4 e2f2 |
gbgb fafa | ecec dBdB | cAcA BGBG | AGFE DEFD |
G2DC B,2D2 | AGFE D2d2 | cBAG FGAF | G2DC B,2D2 | G3A G4 :|
<end>
<start>
